X: 2
T: The High Drive
R: reel
M: 4/4
L: 1/8
K: Dmaj
|: A | d3 e fedA | B/B/B gB BAGB | GA A/A/A fedf | eA A/A/A afge |
d/d/d de fedA | B/B/B gB BAGB | GA A/2A/2A fedf | edce d3 :|
|: A | aaag ad d/d/d | AB B/B/B gBdB | GA A/A/A fedf | eA A/A/A efge |
aaag ad d/d/d | AB B/B/B gBdB | GA A/A/A fedf | edce d3 :|
A |: dAeA fA A/A/A | gBBA Baag | fA A/A/A afdf | eA A/A/A afge |
dAeA fA A/A/A | gBBA Baag | fA A/A/A afdf |[1 edce d2 fe :|[2 edce defg |]
|: adda ddad | gddg ddgd | fddf ddfd | edde defg |
adda ddad | gBdg BdGB | GA A/A/A fedf |[1 edce defg :|[2 edce d4 |]

%%newpage

